X: 40615
T: Tongs By The Fire, The
R: jig
M: 6/8
K: Gmajor
|:GBd cAF|Gge dBG|cec BdB|ABG FED|
GBd cAF|Gge dBG|cec Bdg|1 fef g3:|2 fef g2d||
|:gdB gdB|gfa gdB|g3 eag|fdd def|
gc/a/g fc/a/f|ec/a/e def|gdB AGA|1 BGG GBd:|2 BGG G2D||

